X:55
T:Bucks Phaeton, The, or A Trip to Windsor
M:2/4
L:1/8
B:Thompson's Compleat Collection of 200 Favourite Country Dances, vol. 3 (London, 1773)
Z:Transcribed and edited by Flynn Titford-Mock, 2007
Z:abc's:AK/Fiddler's Companion
K:F
F3A | "tr"G3B | AfcA | {A}G4 | F3A | G3f | edc=B | c4::"tr"c3e | "tr"d3a | gfed | e4 | Gfed |
cagf | edc=B | c_BAG | F3A | G3B | Afed | cBAG | F3A | G3d | cBAG | F4 :|

